X:1
T:Title
%%score { ( 1 3 ) | ( 2 4 ) }
L:1/8
M:3/4
K:Bb
V:1 bass nm="Grand Piano"
V:3 bass 
V:2 bass 
V:4 bass 
V:1
 z2 z2[Q:1/4=126] DC | B,2 [F,B,D]2 [F,B,F]2 | [DB]4 z2 | D2 F2 B2 | [Fd]4 z2 | B2 z2 z2 | %6
 c2 z2 z2 | [EG]2 [B,DF]2 [B,D]2 | z2 A,2 ED | C2 [A,D]2 [A,E]2 | [EA]4 z2 | %11
 D2[K:bass] [F,B,E]2 [F,B,F]2 | z2 B,2 BB | B2 [CA]2 [CG]2 | c2 z2 z2 | A2 z2 z2 | [A,CF]6 | %17
 [Fd]6[K:bass] | [DF]6 | G2 A2 B2 | [DF]4 z2 | [Fd]6[K:bass] | [DF]6 | G2 z2 z2 | %24
 [EA]4[K:bass] z2 | [ce]2 [EG]2 AB | [Ac]2 F2 GA | [GB]2 [CE]2 FG | [FA]2 [EG]4 | z2 [GB]4 | %30
 z2 [EG]4 | [EG]2 [DF]4- | [DF]4 z2 | [Fd]6[K:bass] | [DF]6 | G2 A2 B2 | [DF]4 z2 | [Fd]6 | [FG]6 | %39
 [F=B]2 [Ec]2 [Fd]2 | [Ge]4 z2 | [ce]2 [ce]2 [Bd]2 | [Ac]=B [CFAc]2 [CF]2 | [Bd]2 [Bd]2 [Fc]2 | %44
 [DB]c [Bd]2 [B,D]2 | [=Ed]2 G2 d2 | c2 F2 c2 | [DB]6- |[M:2/4] [DB]4 |] %49
V:2
 z6 | B,,2 D,2 D,2 | B,,2 [D,F,]2 [D,F,B,]2 | B,,2 [D,F,B,]2 [D,F,B,]2 | B,,2 [D,F,]2 [D,F,B,]2 | %5
 z2 F,2 F,2 | z2 G,2 G,2 | z2 F,2 F,2 | F,,2 F,2 z2 | F,,2 F,2 F,2 | F,,2 F,2 [F,A,]2 | %11
 B,,2 D,2 D,2 | B,,2 [D,F,]2 [D,F,B,]2 | z2 B,2 B,2 | z2 A,2 A,2 | z2 C2 B,2 | F,6 | B,,2 D,2 D,2 | %18
 B,,2 D,2 D,2 | B,,2 B,2 B,2 | B,,2 B,2 B,2 | B,,2 D,2 D,2 | B,,2 D,2 D,2 | B,,2 [D,F,]2 [D,F,]2 | %24
 C,2 E,2 E,2 | F,,2 F,2[K:treble] FG | F,,2 F,2[K:treble] EF | F,,2 F,2 DE | F,,2 F,2 A,2 | %29
 C,2 [F,A,E]2 F,2 | F,,2 F,2 F,2 | B,,2 D,2 F,2 | B,2 F,2 D,2 | B,,2 D,2 D,2 | B,,2 D,2 D,2 | %35
 B,,2 B,2 B,2 | B,,2 B,2 B,2 | G,,2 F,2 F,2 | A,,2 F,2 F,2 | G,,2 [F,G,=B,]2 [F,G,B,]2 | %40
 C,2 G,2 C2 | F,2[K:treble] [A,CF]2 [A,CF]2 | z _A A,2[K:bass] A,2 | B,,2 [F,B,D]2 [F,B,D]2 | %44
 z F [F,B,D]2 F,2 | C,2 [B,C=E]2 [B,CE]2 | [F,E]2 [A,E]2 [F,E]2 | B,2 F,2 D,2 |[M:2/4] B,,4 |] %49
V:3
 x6 | x6 | z2 B,2 FE | x6 | z2 B,2 dc | F2- [B,F-A]2 [B,FB]2 | [EG]2- [B,E-GB]2 [B,EG]2 | x6 | %8
 C4 z2 | x6 | z2 A,2 FE | x2[K:bass] x4 | [DB]4 z2 | =E6 | F2- [CFA]2 [CF]2 | =E2- [E-A]2 [CEG]2 | %16
 x6 | z2[K:bass] [F,B,]2 [F,B,]2 | z2 [F,B,]2 [F,B,]2 | [_D=E]6 | x6 | z2[K:bass] [F,B,]2 [F,B,]2 | %22
 z2 [F,B,]2 [F,B,]2 | D2- [B,D-A]2 [B,DB]2 | z2[K:bass] [F,A,]2 [F,A,]2 | x6 | x6 | x6 | x6 | %29
 [Ac]2 z2 [A,E]2 | [FA]2 A,2 A,2 | x6 | x6 | z2[K:bass] [F,B,]2 [F,B,]2 | z2 [F,B,]2 [F,B,]2 | %35
 [_D=E]6 | x6 | z2 [G,=B,]2 [G,B,]2 | z2 [G,=B,]2 [G,B,]2 | x6 | x6 | x6 | x6 | x6 | x6 | x6 | x6 | %47
 x6 |[M:2/4] x4 |] %49
V:4
 x6 | x6 | x6 | x6 | x6 | D,6 | E,6 | B,,6 | x6 | x6 | x6 | x6 | x6 | C,6 | C,6 | C,6 | x6 | x6 | %18
 x6 | x6 | x6 | x6 | x6 | x6 | x6 | x4[K:treble] x2 | x4[K:treble] x2 | x6 | x6 | x6 | x6 | x6 | %32
 x6 | x6 | x6 | x6 | x6 | x6 | x6 | x6 | x6 | x2[K:treble] x4 | F,2 z2[K:bass] z2 | x6 | %44
 B,,2 z2 z2 | x6 | x6 | x6 |[M:2/4] x4 |] %49

